build/svg/svx/res/marker-rectplus7-4.svg

<svg viewBox="0 0 7 7" xmlns="http://www.w3.org/2000/svg"><path d="m0 0v7h7v-7zm3 1h1v1 1h1 1v1h-1-1v1 1h-1v-1-1h-1-1v-1h1 1v-1z" fill="#c7162b" opacity=".8"/><path d="m3 1v2h-2v1h2v2h1v-2h2v-1h-2v-2z" fill="#fff" opacity=".8"/></svg>

<svg viewBox="0 0 7 7" xmlns="http://www.w3.org/2000/svg"><path d="M0 0v7h7V0zm3 1h1v2h2v1H4v2H3V4H1V3h2V2z" fill="#c7162b" opacity=".8"/><path d="M3 1v2H1v1h2v2h1V4h2V3H4V1z" fill="#fff" opacity=".8"/></svg>
